assets/icons/L-font.svg

<?xml version="1.0" encoding="UTF-8"?>
<svg version="1.1" viewBox="0 0 1500 576" xmlns="http://www.w3.org/2000/svg">
<g fill="#969696">
<path d="m270.49 0-170.07 406.63s189.8 0.806 189.8 0.807v33.812l83.219-63.875-80.532-75.687v32.75h-85.906l133.51-334.44h-70.023zm91.822 402.66-72.187 61.813h72.187v-61.813z"/>
<path d="m494.16 326.26h58.978l17.108-58.077h-58.978l21.16-72.034h60.328l17.558-58.978h-128.76l-96.345 327.3h126.51l22.511-62.129h-62.581l22.511-76.086z"/>
<path d="m682.94 268.18-17.108 58.077h13.956l-24.761 83.739h-22.961c-9.005 0-13.057-3.602-10.355-13.056l56.276-190.89c2.251-8.104 5.854-9.905 13.057-9.905h66.181l17.559-58.978h-108.5c-21.61 0-36.467 6.303-43.671 30.614l-69.332 235.91c-12.605 43.22 13.056 60.778 43.671 60.778h41.869l-7.203 25.662 75.635-38.268 54.025-183.69h-78.336v3e-3z"/>
<path d="m853.28 137.19c-21.61 0-36.452 6.282-43.656 30.593l-69.344 235.91c-12.605 43.22 13.042 60.781 43.657 60.781 0 0 35.193 0.01 41.874 0 41.839-0.063 62.017-4e-3 80.126-47.219 0.954-2.489 66.219-232.79 68.512-243.39 2.294-10.599 4.297-36.66-15.138-36.674-19.084-0.015-53.406 0-53.406 0h-52.625zm24.75 58.968s15.243 0.094 19.188 0c5.818 0 7.358 3.27 4.687 12.282-12.937 50.546-56.199 189.32-56.437 189.91-3.27 7.998-5.607 11.609-13.438 11.656-2.52 0.015-12.969 0-12.969 0-9.005 0-13.045-3.608-10.343-13.062l56.281-190.88c2.251-8.104 5.828-9.906 13.031-9.906z"/>
<path d="m1031 78.094h74.46l-115.69 386.38h-74.027l115.26-386.38z"/>
<path d="m988.82 0h201.99l-20.51 68.566h-207.27l25.788-68.566z"/>
<path d="m1142.3 137.19c-21.61 0-36.45 6.282-43.66 30.593l-69.34 235.91c-12.6 43.22 13.04 60.781 43.66 60.781 0 0 35.19 0.01 41.87 0 41.84-0.063 62.02-4e-3 80.13-47.219 0.95-2.489 66.22-232.79 68.51-243.39 2.29-10.599 4.3-36.66-15.14-36.674-19.08-0.015-53.4 0-53.4 0h-52.63zm24.75 58.968s15.24 0.094 19.19 0c5.82 0 7.36 3.27 4.69 12.282-12.94 50.546-56.2 189.32-56.44 189.91-3.27 7.998-5.61 11.609-13.44 11.656-2.52 0.015-12.97 0-12.97 0-9 0-13.04-3.608-10.34-13.062l56.28-190.88c2.25-8.104 5.83-9.906 13.03-9.906z"/>
<path d="m1394.7 309.15c16.66 0 26.11-9.905 28.81-19.359l32.87-111.2c6.3-21.61-3.16-41.419-32.42-41.419h-123.81l-96.34 327.3h67.98l40.97-139.56h22.51c8.1 0 9 5.853 7.2 11.256l-37.81 128.31h67.98l35.11-119.31c7.21-23.412-2.7-34.217-13.05-36.018zm-16.81-105.8-18.01 60.778c-3.15 9.905-9 12.606-15.75 12.606h-23.41l25.66-86.891h21.16c10.35 0 13.05 4.952 10.35 13.507z"/>
<path d="m215.5 78.406c-121.73 16.816-215.5 121.24-215.5 247.59-1.0172e-5 138.07 111.93 250 250 250 80.334 0 151.76-37.927 197.5-96.812h-54.156c-37.543 35.141-87.863 56.812-143.34 56.812-115.98 0-210-94.02-210-210 0-97.654 66.673-179.72 156.97-203.22l18.531-44.375zm112.28 10-14.906 37.282c53.339 16.733 97.406 54.199 123 102.91l15-50.938c-30.527-41.269-73.26-72.946-123.09-89.25z"/>
</g>
</svg>

<?xml version="1.0" encoding="UTF-8" standalone="no"?> <!-- Created with Vectornator for iOS (http://vectornator.io/) --><!DOCTYPE svg PUBLIC "-//W3C//DTD SVG 1.1//EN" "http://www.w3.org/Graphics/SVG/1.1/DTD/svg11.dtd">
<svg style="fill-rule:evenodd;clip-rule:evenodd;stroke-linecap:round;stroke-linejoin:round;" xmlns:vectornator="http://vectornator.io" xmlns:xlink="http://www.w3.org/1999/xlink" xmlns="http://www.w3.org/2000/svg" xml:space="preserve" version="1.1" viewBox="0 0 1500 576">
<metadata>
<vectornator:setting key="DisplayWhiteBackground" value="0"/>
<vectornator:setting key="RulersVisible" value="1"/>
<vectornator:setting key="Units" value="Points"/>
<vectornator:setting key="DynamicGuides" value="1"/>
<vectornator:setting key="CMYKEnabledKey" value="0"/>
<vectornator:setting key="SnapToGuides" value="1"/>
<vectornator:setting key="ShowGrid" value="0"/>
<vectornator:setting key="GridSpacing" value="36"/>
</metadata>
<defs/>
<g id="R" vectornator:layerName="R">
<path d="M270.49+0L100.421+406.631C100.421+406.631+290.219+407.437+290.219+407.438L290.219+441.25L373.438+377.375L292.906+301.688L292.906+334.438L207+334.438L340.513+0L270.49+0ZM362.312+402.656L290.125+464.469L362.312+464.469L362.312+402.656Z" opacity="1" fill="#969696"/>
<path d="M494.16+326.261L553.138+326.261L570.246+268.184L511.268+268.184L532.428+196.15L592.756+196.15L610.314+137.172L481.554+137.172L385.209+464.476L511.719+464.476L534.23+402.347L471.649+402.347C471.649+402.347+494.16+326.261+494.16+326.261Z" opacity="1" fill="#969696"/>
<path d="M682.943+268.183L665.835+326.26L679.791+326.26L655.03+409.999L632.069+409.999C623.064+409.999+619.012+406.397+621.714+396.943L677.99+206.053C680.241+197.949+683.844+196.148+691.047+196.148L757.228+196.148L774.787+137.17L666.285+137.17C644.675+137.17+629.818+143.473+622.614+167.784L553.282+403.695C540.677+446.915+566.338+464.473+596.953+464.473L638.822+464.473L631.619+490.135L707.254+451.867L761.279+268.18L682.943+268.18L682.943+268.183Z" opacity="1" fill="#969696"/>
<path d="M853.281+137.188C831.671+137.188+816.829+143.47+809.625+167.781L740.281+403.688C727.676+446.908+753.323+464.469+783.938+464.469C783.938+464.469+819.131+464.479+825.812+464.469C867.651+464.406+887.829+464.465+905.938+417.25C906.892+414.761+972.157+184.46+974.45+173.862C976.744+163.263+978.747+137.202+959.312+137.188C940.228+137.173+905.906+137.188+905.906+137.188L853.281+137.188ZM878.031+196.156C878.031+196.156+893.274+196.25+897.219+196.156C903.037+196.156+904.577+199.426+901.906+208.438C888.969+258.984+845.707+397.762+845.469+398.344C842.199+406.342+839.862+409.953+832.031+410C829.511+410.015+819.062+410+819.062+410C810.057+410+806.017+406.392+808.719+396.938L865+206.062C867.251+197.958+870.828+196.156+878.031+196.156Z" opacity="1" fill="#969696"/>
<path d="M1031+78.0938L1105.46+78.0938L989.769+464.469L915.742+464.469L1031+78.0938Z" opacity="1" fill="#969696"/>
<path d="M988.82+0L1190.81+0L1170.3+68.566L963.032+68.566L988.82+0Z" opacity="1" fill="#969696"/>
<path d="M1142.28+137.188C1120.67+137.188+1105.83+143.47+1098.62+167.781L1029.28+403.688C1016.68+446.908+1042.32+464.469+1072.94+464.469C1072.94+464.469+1108.13+464.479+1114.81+464.469C1156.65+464.406+1176.83+464.465+1194.94+417.25C1195.89+414.761+1261.16+184.46+1263.45+173.862C1265.74+163.263+1267.75+137.202+1248.31+137.188C1229.23+137.173+1194.91+137.188+1194.91+137.188L1142.28+137.188ZM1167.03+196.156C1167.03+196.156+1182.27+196.25+1186.22+196.156C1192.04+196.156+1193.58+199.426+1190.91+208.438C1177.97+258.984+1134.71+397.762+1134.47+398.344C1131.2+406.342+1128.86+409.953+1121.03+410C1118.51+410.015+1108.06+410+1108.06+410C1099.06+410+1095.02+406.392+1097.72+396.938L1154+206.062C1156.25+197.958+1159.83+196.156+1167.03+196.156Z" opacity="1" fill="#969696"/>
<path d="M1394.7+309.153C1411.36+309.153+1420.81+299.248+1423.51+289.794L1456.38+178.592C1462.68+156.982+1453.22+137.173+1423.96+137.173L1300.15+137.173L1203.81+464.476L1271.79+464.476L1312.76+324.911L1335.27+324.911C1343.37+324.911+1344.27+330.764+1342.47+336.167L1304.66+464.477L1372.64+464.477L1407.75+345.171C1414.96+321.759+1405.05+310.954+1394.7+309.153ZM1377.89+203.354L1359.88+264.132C1356.73+274.037+1350.88+276.738+1344.13+276.738L1320.72+276.738L1346.38+189.847L1367.54+189.847C1377.89+189.847+1380.59+194.799+1377.89+203.354Z" opacity="1" fill="#969696"/>
<path d="M215.5+78.4062C93.7672+95.2218+0+199.643+0+326C-1.01725e-05+464.071+111.929+576+250+576C330.334+576+401.763+538.073+447.5+479.188L393.344+479.188C355.801+514.329+305.481+536+250+536C134.02+536+40+441.98+40+326C40+228.346+106.673+146.284+196.969+122.781L215.5+78.4062ZM327.781+88.4062L312.875+125.688C366.214+142.421+410.281+179.887+435.875+228.594L450.875+177.656C420.348+136.387+377.615+104.71+327.781+88.4062Z" opacity="1" fill="#969696"/>
</g>
</svg>
